X:1128
T:O merry may the Maid be.
M:C
L:1/8
Q:1/2=104
I: :: ::
Z:Jack Campin * www.campin.me.uk * 2009
K:E Minor
GA|B3c BAGF|E3 F G2A2|B3 c d2cB|e4 A2  !
GA|B3c BAGF|E3 F G2A2|B2g2 f3 g|e4 B2:|!
B2|e3f g2d2|Bcd2 G2B2|A3 B c2d2|e4 A2  !
dc|B3c BAGF|E3 F G2A2|B2g2 f3 g|e4 B2:|

